symbolic/apps/preferences-color-symbolic.svg

<svg version="1.1" viewBox="0 0 16 16" xmlns="http://www.w3.org/2000/svg">
 <g fill="#808080" fill-rule="evenodd" stroke-linecap="square">
  <path d="m5.5 5a5.5 5.5 0 0 0-5.5 5.5 5.5 5.5 0 0 0 5.5 5.5 5.5 5.5 0 0 0 5.5-5.5 5.5 5.5 0 0 0-5.5-5.5zm0 1a4.5 4.5 0 0 1 4.5 4.5 4.5 4.5 0 0 1-4.5 4.5 4.5 4.5 0 0 1-4.5-4.5 4.5 4.5 0 0 1 4.5-4.5z"/>
  <path d="m10.5 5a5.5 5.5 0 0 0-5.5 5.5 5.5 5.5 0 0 0 5.5 5.5 5.5 5.5 0 0 0 5.5-5.5 5.5 5.5 0 0 0-5.5-5.5zm0 1a4.5 4.5 0 0 1 4.5 4.5 4.5 4.5 0 0 1-4.5 4.5 4.5 4.5 0 0 1-4.5-4.5 4.5 4.5 0 0 1 4.5-4.5z"/>
  <path d="m8 0a5.5 5.5 0 0 0-5.5 5.5 5.5 5.5 0 0 0 5.5 5.5 5.5 5.5 0 0 0 5.5-5.5 5.5 5.5 0 0 0-5.5-5.5zm0 1a4.5 4.5 0 0 1 4.5 4.5 4.5 4.5 0 0 1-4.5 4.5 4.5 4.5 0 0 1-4.5-4.5 4.5 4.5 0 0 1 4.5-4.5z"/>
  <path d="m10.5 6c-2.1646 0-3.97 1.5299-4.4004 3.5664 0.57898 0.27125 1.2188 0.43359 1.9004 0.43359 2.1646 0 3.97-1.5299 4.4004-3.5664-0.57898-0.27125-1.2188-0.43359-1.9004-0.43359z" opacity=".5"/>
  <path d="m8 6.7598c-1.2051 0.8074-2 2.1807-2 3.7402 0 1.5595 0.79488 2.9328 2 3.7402 1.2051-0.8074 2-2.1807 2-3.7402 0-1.5595-0.79488-2.9328-2-3.7402z" opacity=".5"/>
  <path d="m5.5 6c-0.68164 0-1.3214 0.16234-1.9004 0.43359 0.4304 2.0365 2.2357 3.5664 4.4004 3.5664 0.68164 0 1.3214-0.16234 1.9004-0.43359-0.4304-2.0365-2.2357-3.5664-4.4004-3.5664z" opacity=".5"/>
  <path d="m8 6.7598c-0.95735 0.6414-1.6541 1.6411-1.9004 2.8066 0.57898 0.27125 1.2188 0.43359 1.9004 0.43359 0.68164 0 1.3214-0.16234 1.9004-0.43359-0.24633-1.1656-0.94304-2.1652-1.9004-2.8066z"/>
 </g>
</svg>

<svg xmlns="http://www.w3.org/2000/svg" viewBox="0 0 16 16"><g fill="gray" fill-rule="evenodd" stroke-linecap="square"><path d="M5.5 5A5.5 5.5 0 0 0 0 10.5 5.5 5.5 0 0 0 5.5 16a5.5 5.5 0 0 0 5.5-5.5A5.5 5.5 0 0 0 5.5 5m0 1a4.5 4.5 0 0 1 4.5 4.5A4.5 4.5 0 0 1 5.5 15 4.5 4.5 0 0 1 1 10.5 4.5 4.5 0 0 1 5.5 6"/><path d="M10.5 5A5.5 5.5 0 0 0 5 10.5a5.5 5.5 0 0 0 5.5 5.5 5.5 5.5 0 0 0 5.5-5.5A5.5 5.5 0 0 0 10.5 5m0 1a4.5 4.5 0 0 1 4.5 4.5 4.5 4.5 0 0 1-4.5 4.5A4.5 4.5 0 0 1 6 10.5 4.5 4.5 0 0 1 10.5 6"/><path d="M8 0a5.5 5.5 0 0 0-5.5 5.5A5.5 5.5 0 0 0 8 11a5.5 5.5 0 0 0 5.5-5.5A5.5 5.5 0 0 0 8 0m0 1a4.5 4.5 0 0 1 4.5 4.5A4.5 4.5 0 0 1 8 10a4.5 4.5 0 0 1-4.5-4.5A4.5 4.5 0 0 1 8 1"/><path d="M10.5 6a4.5 4.5 0 0 0-4.4 3.566A4.5 4.5 0 0 0 8 10a4.5 4.5 0 0 0 4.4-3.566A4.5 4.5 0 0 0 10.5 6" opacity=".5"/><path d="M8 6.76a4.495 4.495 0 0 0 0 7.48 4.495 4.495 0 0 0 0-7.48" opacity=".5"/><path d="M5.5 6c-.682 0-1.321.162-1.9.434A4.5 4.5 0 0 0 8 10c.682 0 1.321-.162 1.9-.434A4.5 4.5 0 0 0 5.5 6" opacity=".5"/><path d="M8 6.76a4.5 4.5 0 0 0-1.9 2.806A4.5 4.5 0 0 0 8 10c.682 0 1.321-.162 1.9-.434A4.5 4.5 0 0 0 8 6.76"/></g></svg>
